gtk-icons/Papirus-GTK/16x16/mimetypes/application-x-theme.svg

<?xml version="1.0" encoding="UTF-8" standalone="no"?>
<svg
   xmlns:dc="http://purl.org/dc/elements/1.1/"
   xmlns:cc="http://creativecommons.org/ns#"
   xmlns:rdf="http://www.w3.org/1999/02/22-rdf-syntax-ns#"
   xmlns:svg="http://www.w3.org/2000/svg"
   xmlns="http://www.w3.org/2000/svg"
   xmlns:sodipodi="http://sodipodi.sourceforge.net/DTD/sodipodi-0.dtd"
   xmlns:inkscape="http://www.inkscape.org/namespaces/inkscape"
   width="16px"
   height="16px"
   viewBox="0 0 16 16"
   version="1.1"
   id="svg2"
   inkscape:version="0.91 r"
   sodipodi:docname="application-x-theme.svg">
  <metadata
     id="metadata30">
    <rdf:RDF>
      <cc:Work
         rdf:about="">
        <dc:format>image/svg+xml</dc:format>
        <dc:type
           rdf:resource="http://purl.org/dc/dcmitype/StillImage" />
      </cc:Work>
    </rdf:RDF>
  </metadata>
  <sodipodi:namedview
     pagecolor="#ffffff"
     bordercolor="#666666"
     borderopacity="1"
     objecttolerance="10"
     gridtolerance="10"
     guidetolerance="10"
     inkscape:pageopacity="0"
     inkscape:pageshadow="2"
     inkscape:window-width="1535"
     inkscape:window-height="876"
     id="namedview28"
     showgrid="false"
     inkscape:zoom="39.78"
     inkscape:cx="9.0604028"
     inkscape:cy="8"
     inkscape:window-x="65"
     inkscape:window-y="24"
     inkscape:window-maximized="1"
     inkscape:current-layer="svg2" />
  <defs
     id="defs4">
    <linearGradient
       id="linear0"
       gradientUnits="userSpaceOnUse"
       x1="143"
       y1="203"
       x2="127"
       y2="203"
       gradientTransform="matrix(0,-0.328125,0.325,0,-53.1,54.921875)">
      <stop
         offset="0"
         style="stop-color:rgb(100%,100%,100%);stop-opacity:0.101961;"
         id="stop7" />
      <stop
         offset="1"
         style="stop-color:rgb(100%,100%,100%);stop-opacity:0;"
         id="stop9" />
    </linearGradient>
  </defs>
  <g
     id="surface1"
     transform="matrix(1.1538462,0,0,1.1538462,-0.73076938,-1.2884615)">
    <path
       style="fill:#5e7a8a;fill-opacity:1;fill-rule:nonzero;stroke:none"
       d="m 14.5,8 0,-4.59375 c 0,-0.363281 -0.289062,-0.5562501 -0.648438,-0.5562501 l -11.703124,0 C 1.789062,2.8499999 1.5,3.042969 1.5,3.40625 l 0,9.1875 C 1.5,12.957031 1.789062,13.25 2.148438,13.25 l 7.101562,0 z"
       id="path12"
       inkscape:connector-curvature="0"
       sodipodi:nodetypes="csssssscc" />
    <path
       style="fill:#7d94a1;fill-opacity:1;fill-rule:nonzero;stroke:none"
       d="m 13.5,8.640625 0,-4.890625 -11,0 0,8.5 7.5,0 z m 0,0"
       id="path14"
       inkscape:connector-curvature="0" />
    <path
       style="fill:#ffffff;fill-opacity:1;fill-rule:nonzero;stroke:none"
       d="M 7.316406,4.75 C 7.246094,4.757812 7.183594,4.8125 7.171875,4.882812 L 7.0625,5.417969 C 6.746094,5.53125 6.453125,5.703125 6.199219,5.925781 L 5.636719,5.742188 C 5.5625,5.714844 5.476562,5.746094 5.4375,5.8125 L 4.769531,6.9375 C 4.734375,7.003906 4.75,7.09375 4.804688,7.140625 L 5.289062,7.554688 C 5.265625,7.703125 5.25,7.851562 5.25,8 c 0,0.148438 0.011719,0.300781 0.039062,0.449219 L 4.804688,8.859375 C 4.75,8.90625 4.734375,8.996094 4.769531,9.0625 l 0.667969,1.125 c 0.039062,0.06641 0.125,0.09766 0.199219,0.07031 l 0.5625,-0.183593 c 0.253906,0.222656 0.546875,0.390625 0.863281,0.507812 l 0.109375,0.535157 C 7.183594,11.191406 7.253906,11.25 7.332031,11.25 l 1.335938,0 c 0.078125,0 0.148437,-0.05859 0.160156,-0.132812 L 8.9375,10.582031 C 9.253906,10.46875 9.546875,10.296875 9.800781,10.074219 l 0.5625,0.183593 c 0.07422,0.02734 0.160157,-0.0039 0.199219,-0.07031 l 0.667969,-1.125 C 11.265625,8.996094 11.25,8.90625 11.195312,8.859375 L 10.710938,8.445312 C 10.734375,8.300781 10.75,8.148438 10.75,8 10.75,7.851562 10.73828,7.699219 10.71094,7.554688 L 11.195312,7.140625 C 11.25,7.09375 11.265625,7.003906 11.230469,6.9375 L 10.5625,5.8125 C 10.523438,5.746094 10.4375,5.714844 10.363281,5.742188 l -0.5625,0.183593 C 9.546875,5.703125 9.253906,5.535156 8.9375,5.417969 L 8.828125,4.882812 C 8.816406,4.808594 8.746094,4.75 8.667969,4.75 l -1.335938,0 c -0.00391,0 -0.011719,0 -0.015625,0 z M 8,6.75 C 8.691406,6.75 9.25,7.308594 9.25,8 9.25,8.691406 8.691406,9.25 8,9.25 7.308594,9.25 6.75,8.691406 6.75,8 6.75,7.308594 7.308594,6.75 8,6.75 Z m 0,0"
       id="path16"
       inkscape:connector-curvature="0" />
    <path
       style="fill:url(#linear0);fill-rule:nonzero;stroke:none"
       d="M 1.5,12.59375 C 1.5,12.957031 1.789062,13.25 2.148438,13.25 l 7.152343,0 L 14.5,8 1.5,8 Z m 0,0"
       id="path18"
       inkscape:connector-curvature="0" />
    <path
       style="fill:#b0cfdc;fill-opacity:1;fill-rule:nonzero;stroke:none"
       d="M 14.5,8 9.949219,8 C 9.589844,8 9.25,8.292969 9.25,8.65625 l 0,4.59375 z m 0,0"
       id="path20"
       inkscape:connector-curvature="0" />
    <path
       style="fill:#ffffff;fill-opacity:0.2;fill-rule:nonzero;stroke:none"
       d="M 9.949219,8 C 9.589844,8 9.300781,8.292969 9.300781,8.65625 l 0,0.328125 c 0,-0.363281 0.289063,-0.65625 0.648438,-0.65625 l 4.226562,0 L 14.5,8 Z m 0,0"
       id="path22"
       inkscape:connector-curvature="0" />
    <path
       style="fill:#ffffff;fill-opacity:0.2;fill-rule:nonzero;stroke:none"
       d="M 2.148438,2.8499999 C 1.789062,2.8499999 1.5,3.042969 1.5,3.40625 l 0,0.5 C 1.5,3.542969 1.789062,3.25 2.148438,3.25 l 11.703124,0 C 14.210938,3.25 14.5,3.542969 14.5,3.90625 l 0,-0.5 c 0,-0.363281 -0.289062,-0.5562501 -0.648438,-0.5562501 z"
       id="path24"
       inkscape:connector-curvature="0"
       sodipodi:nodetypes="sscsscsss" />
    <path
       style="fill:#000000;fill-opacity:0.30196102;fill-rule:nonzero;stroke:none"
       d="m 14.5,7.5 -5.25,5.25 -7.101562,0 C 1.789062,12.75 1.5,12.457031 1.5,12.09375 l 0,0.5 C 1.5,12.957031 1.789062,13.25 2.148438,13.25 L 9.25,13.25 14.5,8 Z m 0,0"
       id="path26"
       inkscape:connector-curvature="0" />
  </g>
</svg>

<?xml version="1.0" encoding="UTF-8" standalone="no"?>
<svg id="svg2" xmlns:rdf="http://www.w3.org/1999/02/22-rdf-syntax-ns#" xmlns="http://www.w3.org/2000/svg" height="16px" width="16px" version="1.1" xmlns:cc="http://creativecommons.org/ns#" xmlns:dc="http://purl.org/dc/elements/1.1/" viewBox="0 0 16 16">
 <metadata id="metadata30">
  <rdf:RDF>
   <cc:Work rdf:about="">
    <dc:format>image/svg+xml</dc:format>
    <dc:type rdf:resource="http://purl.org/dc/dcmitype/StillImage"/>
   </cc:Work>
  </rdf:RDF>
 </metadata>
 <defs id="defs4">
  <linearGradient id="linear0" y2="203" gradientUnits="userSpaceOnUse" x2="127" gradientTransform="matrix(0 -.32812 .325 0 -53.1 54.922)" y1="203" x1="143">
   <stop id="stop7" stop-color="#fff" stop-opacity=".10196" offset="0"/>
   <stop id="stop9" stop-color="#fff" stop-opacity="0" offset="1"/>
  </linearGradient>
 </defs>
 <g id="surface1" transform="matrix(1.1538 0 0 1.1538 -.73077 -1.2885)">
  <path id="path12" d="m14.5 8v-4.5938c0-0.36328-0.28906-0.55625-0.64844-0.55625h-11.703c-0.3599 0-0.649 0.193-0.649 0.5562v9.1875c0 0.363 0.2891 0.656 0.6484 0.656h7.1016z" fill="#5e7a8a"/>
  <path id="path14" d="m13.5 8.6406v-4.8906h-11v8.5h7.5z" fill="#7d94a1"/>
  <path id="path16" d="m7.3164 4.75c-0.0703 0.0078-0.1328 0.0625-0.1445 0.1328l-0.1094 0.5352c-0.3164 0.1132-0.6094 0.2851-0.8633 0.5078l-0.5625-0.1836c-0.0742-0.0274-0.1601 0.0039-0.1992 0.0703l-0.668 1.125c-0.0351 0.0664-0.0195 0.1563 0.0352 0.2031l0.4844 0.4141c-0.0235 0.1484-0.0391 0.2969-0.0391 0.4453 0 0.14844 0.011719 0.30078 0.039062 0.44922l-0.4844 0.4102c-0.0547 0.0468-0.0703 0.1367-0.0352 0.2031l0.66797 1.125c0.039062 0.06641 0.125 0.09766 0.19922 0.07031l0.5625-0.18359c0.25391 0.22266 0.54688 0.39062 0.86328 0.50781l0.10938 0.53516c0.0117 0.074 0.082 0.133 0.1601 0.133h1.3359c0.078125 0 0.14844-0.05859 0.16016-0.13281l0.1094-0.535c0.3164-0.113 0.6094-0.285 0.8633-0.508l0.5625 0.18359c0.07422 0.02734 0.16016-0.0039 0.19922-0.07031l0.66797-1.125c0.036-0.0669 0.02-0.1568-0.035-0.2036l-0.484-0.4141c0.023-0.1445 0.039-0.2969 0.039-0.4453s-0.012-0.3008-0.039-0.4453l0.484-0.4141c0.055-0.0468 0.071-0.1367 0.035-0.2031l-0.668-1.125c-0.039-0.0664-0.124-0.0977-0.199-0.0703l-0.5625 0.18359c-0.2536-0.2227-0.5466-0.3906-0.863-0.5078l-0.1094-0.5352c-0.0117-0.0742-0.082-0.1328-0.1601-0.1328h-1.3359-0.015625zm0.6836 2c0.6914 0 1.25 0.5586 1.25 1.25s-0.5586 1.25-1.25 1.25-1.25-0.5586-1.25-1.25 0.5586-1.25 1.25-1.25z" fill="#fff"/>
  <path id="path18" fill="url(#linear0)" d="m1.5 12.594c0 0.363 0.2891 0.656 0.6484 0.656h7.1523l5.1993-5.25h-13z"/>
  <path id="path20" d="m14.5 8h-4.5508c-0.3594 0-0.6992 0.293-0.6992 0.6562v4.5938z" fill="#b0cfdc"/>
  <path id="path22" d="m9.9492 8c-0.3594 0-0.6484 0.293-0.6484 0.6562v0.32812c0-0.36328 0.28906-0.65625 0.64844-0.65625h4.2266l0.324-0.328z" fill-opacity=".2" fill="#fff"/>
  <path id="path24" d="m2.1484 2.85c-0.3593 0-0.6484 0.193-0.6484 0.5562v0.5c0-0.3632 0.2891-0.6562 0.6484-0.6562h11.703c0.36 0 0.649 0.293 0.649 0.6562v-0.5c0-0.36328-0.28906-0.55625-0.64844-0.55625z" fill-opacity=".2" fill="#fff"/>
  <path id="path26" d="m14.5 7.5-5.25 5.25h-7.1016c-0.3593 0-0.6484-0.293-0.6484-0.656v0.5c0 0.363 0.2891 0.656 0.6484 0.656h7.1016l5.25-5.25z" fill-opacity=".30196"/>
 </g>
</svg>
